X:026
T: Soup of Good Drink (The)
N: O'Farrell's Pocket Companion v.1 (Sky ed. p.28)
N: "Irish" % Not "The Drink of Good Soup" ??
M: 6/8
R: jig
L: 1/8
Q: 320
K: D
DED F2G | A2d cAF| G2A B2G| GBG AFD|
DED F2G | A2d cAF| G2A B2G| AFD D3 :|
d2e f2d | faf gec| d2e f2d| cBA d2A |
d2e f2d | faf gec| d2A B2G| AFD D3 :|
